svgs/mixplorer.svg

<svg width="192" height="192" viewBox="0 0 192 192" fill="none" xmlns="http://www.w3.org/2000/svg"><path d="m22 54 25 20 25-20v52H22V54ZM120 138l16-26-16-26h50l-16 26 16 26h-50ZM96 106V74" stroke="#000" stroke-width="12" stroke-linecap="round" stroke-linejoin="round"/></svg>

<svg width="192" height="192" viewBox="0 0 192 192" fill="none" xmlns="http://www.w3.org/2000/svg">
<path d="M22 54L47 74L72 54V106H22V54Z" stroke="black" stroke-width="12" stroke-linecap="round" stroke-linejoin="round"/>
<path d="M120 138L136 112L120 85.9999L170 86L154 112L170 138L120 138Z" stroke="black" stroke-width="12" stroke-linecap="round" stroke-linejoin="round"/>
<path d="M96 106V74" stroke="black" stroke-width="12" stroke-linecap="round" stroke-linejoin="round"/>
</svg>
